build/Karasa-Jaga/scalable/emotes/face-angry-symbolic.svg

<svg height="16" width="16" xmlns="http://www.w3.org/2000/svg"><path d="m8 .75c-3.9970422 0-7.25 3.2529581-7.25 7.25 0 3.997042 3.2529578 7.25 7.25 7.25 3.997042 0 7.25-3.252958 7.25-7.25 0-3.9970419-3.252958-7.25-7.25-7.25zm0 10.125c3.2558 0 3 .37217 3 .75v.25h-6.03125v-.28125c0-.34953-.22455-.71875 3.03125-.71875z" fill="#bebebe"/><path d="m4.9999998 5.7061869c-.4254445.2600879-.71875.714846-.71875 1.25 0 .8176603.6823397 1.46875 1.5 1.46875.6916043 0 1.2435943-.4839844 1.40625-1.125l-.375-.0625zm6.0000002 0-1.8125001 1.53125-.375.0625c.1626558.6410156.7146461 1.125 1.4062501 1.125.81766 0 1.5-.6510897 1.5-1.46875 0-.535154-.293306-.9899121-.71875-1.25z" fill="#fff"/></svg>

<?xml version="1.0" encoding="UTF-8" standalone="no"?>
<!-- Created with Inkscape (http://www.inkscape.org/) -->

<svg
   xmlns:dc="http://purl.org/dc/elements/1.1/"
   xmlns:cc="http://creativecommons.org/ns#"
   xmlns:rdf="http://www.w3.org/1999/02/22-rdf-syntax-ns#"
   xmlns:svg="http://www.w3.org/2000/svg"
   xmlns="http://www.w3.org/2000/svg"
   xmlns:xlink="http://www.w3.org/1999/xlink"
   xmlns:sodipodi="http://sodipodi.sourceforge.net/DTD/sodipodi-0.dtd"
   xmlns:inkscape="http://www.inkscape.org/namespaces/inkscape"
   width="16px"
   height="16px"
   id="svg17273"
   version="1.1"
   inkscape:version="0.48.3.1 r9886"
   sodipodi:docname="face-angry-symbolic.svg">
  <defs
     id="defs17275">
    <linearGradient
       gradientTransform="translate(0,-1036.3622)"
       y2="1052.3365"
       x2="6.2342343"
       y1="1036.4342"
       x1="6.2342343"
       gradientUnits="userSpaceOnUse"
       id="linearGradient3804"
       xlink:href="#linearGradient3779"
       inkscape:collect="always" />
    <linearGradient
       gradientUnits="userSpaceOnUse"
       y2="1052.3365"
       x2="6.2342343"
       y1="1036.4342"
       x1="6.2342343"
       id="linearGradient3812"
       xlink:href="#linearGradient3779"
       inkscape:collect="always" />
    <radialGradient
       gradientTransform="matrix(1.3020488e-5,1.7443014,-1.3603604,1.0154528e-5,1426.7246,1025.7323)"
       gradientUnits="userSpaceOnUse"
       r="5"
       fy="1045.0559"
       fx="11.072059"
       cy="1045.0559"
       cx="11.072059"
       id="radialGradient3796"
       xlink:href="#linearGradient3790"
       inkscape:collect="always" />
    <linearGradient
       gradientUnits="userSpaceOnUse"
       y2="7.984375"
       x2="14.8125"
       y1="7.984375"
       x1="1.1875"
       id="linearGradient3806"
       xlink:href="#linearGradient3800"
       inkscape:collect="always" />
    <linearGradient
       gradientUnits="userSpaceOnUse"
       y2="1052.2942"
       x2="3.4594595"
       y1="1036.4342"
       x1="3.4594595"
       id="linearGradient3785"
       xlink:href="#linearGradient3779"
       inkscape:collect="always" />
    <radialGradient
       gradientTransform="matrix(1.4806489e-6,1.9101011,-1.3873874,1.0754581e-6,1450.2076,1024.0417)"
       gradientUnits="userSpaceOnUse"
       r="8"
       fy="1039.4613"
       fx="8.0720873"
       cy="1039.4613"
       cx="8.0720873"
       id="radialGradient3777"
       xlink:href="#linearGradient3771"
       inkscape:collect="always" />
    <linearGradient
       gradientTransform="translate(-4,27.000017)"
       gradientUnits="userSpaceOnUse"
       y2="1024.1722"
       x2="14.801802"
       y1="1010.4072"
       x1="14.801802"
       id="linearGradient4542"
       xlink:href="#linearGradient4536"
       inkscape:collect="always" />
    <linearGradient
       id="linearGradient3702-501-757">
      <stop
         offset="0"
         style="stop-color:#181818;stop-opacity:0"
         id="stop2895" />
      <stop
         offset="0.5"
         style="stop-color:#181818;stop-opacity:1"
         id="stop2897" />
      <stop
         offset="1"
         style="stop-color:#181818;stop-opacity:0"
         id="stop2899" />
    </linearGradient>
    <linearGradient
       y2="39.999443"
       x2="25.058096"
       y1="47.027729"
       x1="25.058096"
       gradientUnits="userSpaceOnUse"
       id="linearGradient3136"
       xlink:href="#linearGradient3702-501-757"
       inkscape:collect="always" />
    <linearGradient
       id="linearGradient3688-464-309">
      <stop
         offset="0"
         style="stop-color:#181818;stop-opacity:1"
         id="stop2889" />
      <stop
         offset="1"
         style="stop-color:#181818;stop-opacity:0"
         id="stop2891" />
    </linearGradient>
    <radialGradient
       r="2.5"
       fy="43.5"
       fx="4.9929786"
       cy="43.5"
       cx="4.9929786"
       gradientTransform="matrix(2.003784,0,0,1.4,-20.01187,-104.4)"
       gradientUnits="userSpaceOnUse"
       id="radialGradient3134"
       xlink:href="#linearGradient3688-464-309"
       inkscape:collect="always" />
    <linearGradient
       id="linearGradient3688-166-749">
      <stop
         offset="0"
         style="stop-color:#181818;stop-opacity:1"
         id="stop2883" />
      <stop
         offset="1"
         style="stop-color:#181818;stop-opacity:0"
         id="stop2885" />
    </linearGradient>
    <radialGradient
       r="2.5"
       fy="43.5"
       fx="4.9929786"
       cy="43.5"
       cx="4.9929786"
       gradientTransform="matrix(2.003784,0,0,1.4,27.98813,-17.4)"
       gradientUnits="userSpaceOnUse"
       id="radialGradient3132"
       xlink:href="#linearGradient3688-166-749"
       inkscape:collect="always" />
    <linearGradient
       id="linearGradient4536">
      <stop
         id="stop4538"
         offset="0"
         style="stop-color:#ffffff;stop-opacity:1;" />
      <stop
         style="stop-color:#ffffff;stop-opacity:0.15686275;"
         offset="0.08246523"
         id="stop4546" />
      <stop
         style="stop-color:#ffffff;stop-opacity:0.23529412;"
         offset="0.936414"
         id="stop4544" />
      <stop
         id="stop4540"
         offset="1"
         style="stop-color:#ffffff;stop-opacity:0.39215687;" />
    </linearGradient>
    <linearGradient
       id="linearGradient3771">
      <stop
         id="stop3773"
         offset="0"
         style="stop-color:#ffffff;stop-opacity:1;" />
      <stop
         id="stop3775"
         offset="1"
         style="stop-color:#e6e6e6;stop-opacity:1;" />
    </linearGradient>
    <linearGradient
       id="linearGradient3779">
      <stop
         id="stop3781"
         offset="0"
         style="stop-color:#828282;stop-opacity:1;" />
      <stop
         id="stop3783"
         offset="1"
         style="stop-color:#505050;stop-opacity:1;" />
    </linearGradient>
    <linearGradient
       id="linearGradient3800"
       inkscape:collect="always">
      <stop
         id="stop3802"
         offset="0"
         style="stop-color:#000000;stop-opacity:0;" />
      <stop
         style="stop-color:#000000;stop-opacity:1;"
         offset="0.5"
         id="stop3808" />
      <stop
         id="stop3804"
         offset="1"
         style="stop-color:#000000;stop-opacity:0;" />
    </linearGradient>
    <linearGradient
       id="linearGradient3790">
      <stop
         id="stop3792"
         offset="0"
         style="stop-color:#93d0e9;stop-opacity:1;" />
      <stop
         id="stop3794"
         offset="1"
         style="stop-color:#3372b1;stop-opacity:1;" />
    </linearGradient>
  </defs>
  <sodipodi:namedview
     id="base"
     pagecolor="#ffffff"
     bordercolor="#666666"
     borderopacity="1.0"
     inkscape:pageopacity="0.0"
     inkscape:pageshadow="2"
     inkscape:zoom="22.627417"
     inkscape:cx="0.087954771"
     inkscape:cy="4.8123213"
     inkscape:current-layer="layer1"
     showgrid="true"
     inkscape:grid-bbox="true"
     inkscape:document-units="px"
     inkscape:window-width="1366"
     inkscape:window-height="696"
     inkscape:window-x="0"
     inkscape:window-y="0"
     inkscape:window-maximized="1"
     showguides="true"
     inkscape:guide-bbox="true" />
  <metadata
     id="metadata17278">
    <rdf:RDF>
      <cc:Work
         rdf:about="">
        <dc:format>image/svg+xml</dc:format>
        <dc:type
           rdf:resource="http://purl.org/dc/dcmitype/StillImage" />
        <dc:title></dc:title>
      </cc:Work>
    </rdf:RDF>
  </metadata>
  <g
     id="layer1"
     inkscape:label="Layer 1"
     inkscape:groupmode="layer">
    <path
       style="fill:#bebebe;fill-opacity:1;stroke:none"
       d="M 8 0.75 C 4.0029578 0.75 0.75 4.0029581 0.75 8 C 0.75 11.997042 4.0029578 15.25 8 15.25 C 11.997042 15.25 15.25 11.997042 15.25 8 C 15.25 4.0029581 11.997042 0.75 8 0.75 z M 8 10.875 C 11.2558 10.875 11 11.24717 11 11.625 L 11 11.875 L 4.96875 11.875 L 4.96875 11.59375 C 4.96875 11.24422 4.7442 10.875 8 10.875 z "
       id="path3276" />
    <path
       style="fill:#ffffff;fill-opacity:1;stroke:none"
       d="m 4.9999998,5.7061869 c -0.4254445,0.2600879 -0.71875,0.714846 -0.71875,1.25 0,0.8176603 0.6823397,1.46875 1.5,1.46875 0.6916043,0 1.2435943,-0.4839844 1.40625,-1.125 l -0.375,-0.0625 -1.8125,-1.53125 z m 6.0000002,0 -1.8125001,1.53125 -0.375,0.0625 c 0.1626558,0.6410156 0.7146461,1.125 1.4062501,1.125 0.81766,0 1.5,-0.6510897 1.5,-1.46875 0,-0.535154 -0.293306,-0.9899121 -0.71875,-1.25 z"
       id="path32526"
       inkscape:connector-curvature="0" />
  </g>
</svg>
